assets/images/icons/account_icon.svg

<svg id="Capa_1" enable-background="new 0 0 512 512" height="512" viewBox="0 0 512 512" width="512" xmlns="http://www.w3.org/2000/svg"><g><path d="m512 256c0-141.484-114.497-256-256-256-141.483 0-256 114.496-256 256 0 137.856 110.237 253.735 251.891 255.95 2.406.108 7.632.007 7.733.006.042.001.22-.002.267-.003 139.746-2.07 252.109-115.949 252.109-255.953zm-256-241c133.193 0 241 107.788 241 241 0 55.528-18.667 108.18-53.009 150.819-.597-26.873-18.022-50.218-43.757-58.367l-48.521-15.362c-2.746-2.35-2.023-1.338-46.692-23.47v-20.787c19.475-13.828 32.961-35.657 35.441-60.827 9.247-1.568 16.312-9.636 16.312-19.322 0-14.366 0-61.595 0-76.331 0-16.807-13.673-30.48-30.48-30.48h-.774c-.144 0-.261-.117-.261-.261 0-16.807-13.673-30.48-30.48-30.48h-79.192c-33.299 0-60.389 27.09-60.389 60.389 0 4.142 3.358 7.5 7.5 7.5s7.5-3.358 7.5-7.5c0-25.028 20.361-45.389 45.389-45.389h79.192c8.536 0 15.48 6.944 15.48 15.48 0 8.415 6.846 15.261 15.261 15.261h.774c8.536 0 15.48 6.944 15.48 15.48v42.682h-8.379c-4.682 0-8.491-3.809-8.491-8.49v-8.751c0-16.634-16.239-28.369-32.031-23.149-23.778 7.859-49.97 7.861-73.779-.004-15.795-5.216-32.028 6.519-32.028 23.15v8.754c0 4.682-3.809 8.491-8.49 8.491h-8.379v-8.853c0-4.142-3.358-7.5-7.5-7.5s-7.5 3.358-7.5 7.5v42.502c0 9.687 7.064 17.754 16.312 19.323 2.479 25.171 15.966 46.999 35.44 60.827v20.795c-44.577 22.088-43.988 21.158-46.685 23.47l-48.497 15.354c-25.735 8.149-43.16 31.494-43.757 58.367-34.343-42.641-53.01-95.293-53.01-150.821 0-133.194 107.788-241 241-241zm-85.986 376.08 5.829-5.818c6.084-6.073 7.523-15.288 3.582-22.927l-9.247-17.929 30.306-14.889c-3.225 13.489-3.12 28.313-1.567 42.207.001.011.003.022.004.032 3.879 34.642 18.02 73.936 32.152 105.794-23.273-23.42-54.375-57.87-62.208-81.751-.545-1.66-.104-3.468 1.149-4.719zm.182-201.045h8.379c12.953 0 23.49-10.538 23.49-23.491v-8.754c0-6.371 6.206-10.925 12.353-8.897 26.814 8.857 56.348 8.856 83.162-.006 6.075-2.007 12.324 2.505 12.324 8.907v8.751c0 12.953 10.538 23.49 23.491 23.49h8.379v18.649c0 2.536-2.063 4.598-4.599 4.598-6.034 0-11.06 4.736-11.441 10.783-2.314 36.695-32.951 65.439-69.749 65.439-36.797 0-67.435-28.744-69.749-65.439-.381-6.046-5.407-10.783-11.441-10.783-2.536 0-4.598-2.062-4.598-4.598v-18.649zm85.797 305.25c-4.867-9.762-11.439-23.669-18.013-39.806l12.316-48.44h11.407l12.308 48.424c-6.586 16.171-13.166 30.092-18.018 39.822zm-9.859-133.964c-4.245 3.546-12.953 10.82-19.761 16.506-1.421 1.187-3.456 1.18-4.862.025l-7.927-9.801c-1.311-13.147-1.181-27.681 2.925-40.126zm-22.208 32.409c1.912 0 3.823-.309 5.67-.895l6.686 8.45-7.553 29.707c-4.326-12.473-8.226-25.478-11.093-38.368 2.031.723 4.156 1.106 6.29 1.106zm39.851-1.69h-15.683l-6.103-7.713 14.825-12.384 13.41 11.466zm22.115-14.971-18.461-15.785 28.131-33.083c4.009 12.358 4.125 26.674 2.865 39.55l-7.664 9.392c-1.422 1.146-3.459 1.133-4.871-.074zm-29.907-72.565c12.069 0 23.588-2.557 34.036-7.152v14.208l-33.269 39.126-34.804-39.234v-14.101c10.448 4.596 21.967 7.153 34.037 7.153zm27.278 126.466-7.577-29.809 6.812-9.117c1.91.632 3.891.962 5.875.962 2.072 0 4.136-.364 6.116-1.048-2.862 13.032-6.785 26.203-11.226 39.012zm-200.283-7.228v-15.498c0-20.9 13.388-39.182 33.313-45.49l39.985-12.659c.4.934-.011.033 9.816 19.117.935 1.812.594 3.996-.848 5.435l-5.829 5.818c-5.283 5.273-7.125 12.941-4.805 20.01 9.573 29.181 47.233 69.591 73.08 94.878-54.878-6.382-105.53-31.228-144.712-71.611zm201.311 71.612c13.939-13.635 31.41-31.751 46.005-50.099 2.579-3.242 2.041-7.96-1.201-10.539-3.242-2.578-7.959-2.041-10.539 1.201-11.777 14.806-25.545 29.512-37.677 41.701 14.175-31.94 28.369-71.367 32.212-106.116.001-.013.003-.026.004-.038 1.523-13.801 1.613-28.499-1.595-41.946l30.306 14.889-9.247 17.929c-3.941 7.641-2.501 16.854 3.583 22.928l5.828 5.817c1.253 1.251 1.693 3.059 1.149 4.719-1.175 3.582-2.963 7.605-5.314 11.958-1.969 3.645-.61 8.195 3.034 10.163 3.645 1.969 8.195.61 10.163-3.034 2.775-5.136 4.918-9.986 6.37-14.413 2.319-7.069.478-14.736-4.805-20.01l-5.828-5.817c-1.442-1.44-1.783-3.625-.849-5.436 9.755-18.945 9.422-18.197 9.818-19.121l39.998 12.663c19.926 6.309 33.313 24.59 33.313 45.491v15.498c-39.094 40.293-89.713 65.219-144.728 71.612z"/></g></svg>

<?xml version="1.0" encoding="UTF-8" standalone="no"?>
<!DOCTYPE svg PUBLIC "-//W3C//DTD SVG 1.1//EN" "http://www.w3.org/Graphics/SVG/1.1/DTD/svg11.dtd">
<svg width="100%" height="100%" viewBox="0 0 512 512" version="1.1" xmlns="http://www.w3.org/2000/svg" xmlns:xlink="http://www.w3.org/1999/xlink" xml:space="preserve" xmlns:serif="http://www.serif.com/" style="fill-rule:evenodd;clip-rule:evenodd;stroke-linejoin:round;stroke-miterlimit:2;">
    <path d="M512,256C512,114.516 397.503,0 256,0C114.517,0 0,114.496 0,256C0,393.856 110.237,509.735 251.891,511.95C254.297,512.058 259.523,511.957 259.624,511.956C259.666,511.957 259.844,511.954 259.891,511.953C399.637,509.883 512,396.004 512,256ZM256,15C389.193,15 497,122.788 497,256C497,311.528 478.333,364.18 443.991,406.819C443.394,379.946 425.969,356.601 400.234,348.452L351.713,333.09C348.967,330.74 349.69,331.752 305.021,309.62L305.021,288.833C324.496,275.005 337.982,253.176 340.462,228.006C349.709,226.438 356.774,218.37 356.774,208.684L356.774,132.353C356.774,115.546 343.101,101.873 326.294,101.873L325.52,101.873C325.376,101.873 325.259,101.756 325.259,101.612C325.259,84.805 311.586,71.132 294.779,71.132L215.587,71.132C182.288,71.132 155.198,98.222 155.198,131.521C155.198,135.663 158.556,139.021 162.698,139.021C166.84,139.021 170.198,135.663 170.198,131.521C170.198,106.493 190.559,86.132 215.587,86.132L294.779,86.132C303.315,86.132 310.259,93.076 310.259,101.612C310.259,110.027 317.105,116.873 325.52,116.873L326.294,116.873C334.83,116.873 341.774,123.817 341.774,132.353L341.774,175.035L333.395,175.035C328.713,175.035 324.904,171.226 324.904,166.545L324.904,157.794C324.904,141.16 308.665,129.425 292.873,134.645C269.095,142.504 242.903,142.506 219.094,134.641C203.299,129.425 187.066,141.16 187.066,157.791L187.066,166.545C187.066,171.227 183.257,175.036 178.576,175.036L170.197,175.036L170.197,166.183C170.197,162.041 166.839,158.683 162.697,158.683C158.555,158.683 155.197,162.041 155.197,166.183L155.197,208.685C155.197,218.372 162.261,226.439 171.509,228.008C173.988,253.179 187.475,275.007 206.949,288.835L206.949,309.63C162.372,331.718 162.961,330.788 160.264,333.1L111.767,348.454C86.032,356.603 68.607,379.948 68.01,406.821C33.667,364.18 15,311.528 15,256C15,122.806 122.788,15 256,15ZM170.014,391.08L175.843,385.262C181.927,379.189 183.366,369.974 179.425,362.335L170.178,344.406L200.484,329.517C197.259,343.006 197.364,357.83 198.917,371.724C198.918,371.735 198.92,371.746 198.921,371.756C202.8,406.398 216.941,445.692 231.073,477.55C207.8,454.13 176.698,419.68 168.865,395.799C168.32,394.139 168.761,392.331 170.014,391.08ZM170.196,190.035L178.575,190.035C191.528,190.035 202.065,179.497 202.065,166.544L202.065,157.79C202.065,151.419 208.271,146.865 214.418,148.893C241.232,157.75 270.766,157.749 297.58,148.887C303.655,146.88 309.904,151.392 309.904,157.794L309.904,166.545C309.904,179.498 320.442,190.035 333.395,190.035L341.774,190.035L341.774,208.684C341.774,211.22 339.711,213.282 337.175,213.282C331.141,213.282 326.115,218.018 325.734,224.065C323.42,260.76 292.783,289.504 255.985,289.504C219.188,289.504 188.55,260.76 186.236,224.065C185.855,218.019 180.829,213.282 174.795,213.282C172.259,213.282 170.197,211.22 170.197,208.684L170.197,190.035L170.196,190.035ZM255.993,495.285C251.126,485.523 244.554,471.616 237.98,455.479L250.296,407.039L261.703,407.039L274.011,455.463C267.425,471.634 260.845,485.555 255.993,495.285ZM246.134,361.321C241.889,364.867 233.181,372.141 226.373,377.827C224.952,379.014 222.917,379.007 221.511,377.852L213.584,368.051C212.273,354.904 212.403,340.37 216.509,327.925L246.134,361.321ZM223.926,393.73C225.838,393.73 227.749,393.421 229.596,392.835L236.282,401.285L228.729,430.992C224.403,418.519 220.503,405.514 217.636,392.624C219.667,393.347 221.792,393.73 223.926,393.73ZM263.777,392.04L248.094,392.04L241.991,384.327L256.816,371.943L270.226,383.409L263.777,392.04ZM285.892,377.069L267.431,361.284L295.562,328.201C299.571,340.559 299.687,354.875 298.427,367.751L290.763,377.143C289.341,378.289 287.304,378.276 285.892,377.069ZM255.985,304.504C268.054,304.504 279.573,301.947 290.021,297.352L290.021,311.56L256.752,350.686L221.948,311.452L221.948,297.351C232.396,301.947 243.915,304.504 255.985,304.504ZM283.263,430.97L275.686,401.161L282.498,392.044C284.408,392.676 286.389,393.006 288.373,393.006C290.445,393.006 292.509,392.642 294.489,391.958C291.627,404.99 287.704,418.161 283.263,430.97ZM82.98,423.742L82.98,408.244C82.98,387.344 96.368,369.062 116.293,362.754L156.278,350.095C156.678,351.029 156.267,350.128 166.094,369.212C167.029,371.024 166.688,373.208 165.246,374.647L159.417,380.465C154.134,385.738 152.292,393.406 154.612,400.475C164.185,429.656 201.845,470.066 227.692,495.353C172.814,488.971 122.162,464.125 82.98,423.742ZM284.291,495.354C298.23,481.719 315.701,463.603 330.296,445.255C332.875,442.013 332.337,437.295 329.095,434.716C325.853,432.138 321.136,432.675 318.556,435.917C306.779,450.723 293.011,465.429 280.879,477.618C295.054,445.678 309.248,406.251 313.091,371.502C313.092,371.489 313.094,371.476 313.095,371.464C314.618,357.663 314.708,342.965 311.5,329.518L341.806,344.407L332.559,362.336C328.618,369.977 330.058,379.19 336.142,385.264L341.97,391.081C343.223,392.332 343.663,394.14 343.119,395.8C341.944,399.382 340.156,403.405 337.805,407.758C335.836,411.403 337.195,415.953 340.839,417.921C344.484,419.89 349.034,418.531 351.002,414.887C353.777,409.751 355.92,404.901 357.372,400.474C359.691,393.405 357.85,385.738 352.567,380.464L346.739,374.647C345.297,373.207 344.956,371.022 345.89,369.211C355.645,350.266 355.312,351.014 355.708,350.09L395.706,362.753C415.632,369.062 429.019,387.343 429.019,408.244L429.019,423.742C389.925,464.035 339.306,488.961 284.291,495.354Z" style="fill:rgb(63,63,63);fill-rule:nonzero;"/>
</svg>
